static/images/coin-icon.svg

<svg height="109" viewBox="0 0 106 109" width="106" xmlns="http://www.w3.org/2000/svg"><g fill="none" fill-rule="evenodd" transform="translate(1 2)"><path d="m102.568 53.19c.314829-2.1956487.474-4.410895.474-6.629 0-25.727-22.886-46.561-51.138-46.561-28.095 0-50.981 20.834-50.981 46.719 0 1.736.158 3.472.316 5.209" stroke="#686868" stroke-width="3"/><path d="m1.081 51.769c2.841 23.517 24.622 41.668 50.823 41.668 25.885 0 47.193-17.52 50.665-40.248" stroke="#686868" stroke-width="3"/><path d="m53.324 44.825h-.316c-6.156-1.1-9.786-1.894-9.786-5.051 0-5.366 8.523-5.524 9.47-5.524 3.63 0 7.418.474 9.628 3.946.2928401.3914453.8203248.5234209 1.263.316l2.21-1.1c.158-.158.473-.316.473-.631s0-.474-.158-.631c-3.472-4.893-7.892-5.84-13.574-5.84-4.893 0-9.154 1.421-11.68 3.63-1.6801784 1.5333974-2.6031651 3.7266331-2.525 6 0 6.629 7.26 7.892 13.732 9s10.733 2.21 10.575 6c0 5.209-7.1 5.84-10.1 5.84-3.946 0-9-1.736-11.048-5.209-.2529312-.4403379-.7830419-.6388671-1.263-.473l-2.368 1.1c-.158.158-.474.316-.474.474-.158.158 0 .473 0 .631 3 5.524 9.786 7.418 15.152 7.418 9.154 0 14.679-3.63 14.679-9.786.315-7.585-7.257-9.005-13.89-10.11z" fill="#686868" fill-rule="nonzero"/><g stroke="#686868" stroke-width="3"><path d="m52.535 22.886v7.103" stroke-linecap="round" stroke-linejoin="round"/><path d="m52.535 64.554v6.156" stroke-linecap="round" stroke-linejoin="round"/><path d="m1.081 51.769c-.31483221 2.1956484-.47323119 4.4108948-.474 6.629 0 12.627 5.524 23.991 14.363 32.514v-11.838c-7.63696352-7.2298781-12.54311278-16.8750941-13.889-27.305z"/><path d="m87.732 91.702v-11.522c-3.7376277 3.3241997-7.9376916 6.0886495-12.469 8.207v11.68c4.5152724-2.2120087 8.7098059-5.0259691 12.469-8.365z"/><path d="m75.106 99.909v-11.68c-3.7924071 1.7377427-7.7614287 3.0607499-11.838 3.946v11.68c4.1024866-.788535 8.0828895-2.115336 11.838-3.946z"/><path d="m102.884 58.399c0-1.736-.158-3.472-.316-5.051-1.735545 10.4120326-7.0359401 19.8971732-14.994 26.832v11.522c9.47-8.523 15.31-20.361 15.31-33.303z"/><path d="m37.383 103.224v-11.68c-4.1128774-1.1240533-8.0844414-2.7126118-11.838-4.735v11.838c3.759352 1.970336 7.7309678 3.505907 11.838 4.577z"/><path d="m51.746 105.117c3.8744675-.012399 7.7367084-.435429 11.522-1.262v-11.68c-3.7318039.8269624-7.5416881 1.2503946-11.364 1.263h-2.21v11.68z"/><path d="m25.545 98.488v-11.837c-3.8365027-2.1225762-7.3896098-4.7211323-10.575-7.734v11.838c3.1444379 3.0613961 6.7044063 5.6646335 10.575 7.733z"/><path d="m49.852 105.118v-11.68c-4.2159779-.1428544-8.4007624-.7785093-12.469-1.894v11.68c4.0682414 1.115473 8.2530238 1.751127 12.469 1.894z"/></g></g></svg>

<?xml version="1.0" encoding="UTF-8"?>
<svg width="106px" height="109px" viewBox="0 0 106 109" version="1.1" xmlns="http://www.w3.org/2000/svg" xmlns:xlink="http://www.w3.org/1999/xlink">
    <!-- Generator: Sketch 63.1 (92452) - https://sketch.com -->
    <title>treasury-accumulation-of-funds</title>
    <desc>Created with Sketch.</desc>
    <g id="Page-1" stroke="none" stroke-width="1" fill="none" fill-rule="evenodd">
        <g id="treasury-accumulation-of-funds" transform="translate(1.000000, 2.000000)">
            <path d="M102.568,53.19 C102.882829,50.9943513 103.042,48.779105 103.042,46.561 C103.042,20.834 80.156,-3.55271368e-15 51.904,-3.55271368e-15 C23.809,-3.55271368e-15 0.923,20.834 0.923,46.719 C0.923,48.455 1.081,50.191 1.239,51.928" id="Path_687" stroke="#686868" stroke-width="3"></path>
            <path d="M1.081,51.769 C3.922,75.286 25.703,93.437 51.904,93.437 C77.789,93.437 99.097,75.917 102.569,53.189" id="Path_688" stroke="#686868" stroke-width="3"></path>
            <path d="M53.324,44.825 L53.008,44.825 C46.852,43.725 43.222,42.931 43.222,39.774 C43.222,34.408 51.745,34.25 52.692,34.25 C56.322,34.25 60.11,34.724 62.32,38.196 C62.6128401,38.5874453 63.1403248,38.7194209 63.583,38.512 L65.793,37.412 C65.951,37.254 66.266,37.096 66.266,36.781 C66.266,36.466 66.266,36.307 66.108,36.15 C62.636,31.257 58.216,30.31 52.534,30.31 C47.641,30.31 43.38,31.731 40.854,33.94 C39.1738216,35.4733974 38.2508349,37.6666331 38.329,39.94 C38.329,46.569 45.589,47.832 52.061,48.94 C58.533,50.048 62.794,51.15 62.636,54.94 C62.636,60.149 55.536,60.78 52.536,60.78 C48.59,60.78 43.536,59.044 41.488,55.571 C41.2350688,55.1306621 40.7049581,54.9321329 40.225,55.098 L37.857,56.198 C37.699,56.356 37.383,56.514 37.383,56.672 C37.225,56.83 37.383,57.145 37.383,57.303 C40.383,62.827 47.169,64.721 52.535,64.721 C61.689,64.721 67.214,61.091 67.214,54.935 C67.529,47.35 59.957,45.93 53.324,44.825 Z" id="Path_689" fill="#686868" fill-rule="nonzero"></path>
            <line x1="52.535" y1="22.886" x2="52.535" y2="29.989" id="Line_214" stroke="#686868" stroke-width="3" stroke-linecap="round" stroke-linejoin="round"></line>
            <line x1="52.535" y1="64.554" x2="52.535" y2="70.71" id="Line_215" stroke="#686868" stroke-width="3" stroke-linecap="round" stroke-linejoin="round"></line>
            <path d="M1.081,51.769 C0.766167791,53.9646484 0.607768814,56.1798948 0.607,58.398 C0.607,71.025 6.131,82.389 14.97,90.912 L14.97,79.074 C7.33303648,71.8441219 2.42688722,62.1989059 1.081,51.769 L1.081,51.769 Z" id="Path_690" stroke="#686868" stroke-width="3"></path>
            <path d="M87.732,91.702 L87.732,80.18 C83.9943723,83.5041997 79.7943084,86.2686495 75.263,88.387 L75.263,100.067 C79.7782724,97.8549913 83.9728059,95.0410309 87.732,91.702 L87.732,91.702 Z" id="Path_691" stroke="#686868" stroke-width="3"></path>
            <path d="M75.106,99.909 L75.106,88.229 C71.3135929,89.9667427 67.3445713,91.2897499 63.268,92.175 L63.268,103.855 C67.3704866,103.066465 71.3508895,101.739664 75.106,99.909 L75.106,99.909 Z" id="Path_692" stroke="#686868" stroke-width="3"></path>
            <path d="M102.884,58.399 C102.884,56.663 102.726,54.927 102.568,53.348 C100.832455,63.7600326 95.5320599,73.2451732 87.574,80.18 L87.574,91.702 C97.044,83.179 102.884,71.341 102.884,58.399 Z" id="Path_693" stroke="#686868" stroke-width="3"></path>
            <path d="M37.383,103.224 L37.383,91.544 C33.2701226,90.4199467 29.2985586,88.8313882 25.545,86.809 L25.545,98.647 C29.304352,100.617336 33.2759678,102.152907 37.383,103.224 L37.383,103.224 Z" id="Path_694" stroke="#686868" stroke-width="3"></path>
            <path d="M51.746,105.117 C55.6204675,105.104601 59.4827084,104.681571 63.268,103.855 L63.268,92.175 C59.5361961,93.0019624 55.7263119,93.4253946 51.904,93.438 L49.694,93.438 L49.694,105.118 L51.746,105.117 Z" id="Path_695" stroke="#686868" stroke-width="3"></path>
            <path d="M25.545,98.488 L25.545,86.651 C21.7084973,84.5284238 18.1553902,81.9298677 14.97,78.917 L14.97,90.755 C18.1144379,93.8163961 21.6744063,96.4196335 25.545,98.488 Z" id="Path_696" stroke="#686868" stroke-width="3"></path>
            <path d="M49.852,105.118 L49.852,93.438 C45.6360221,93.2951456 41.4512376,92.6594907 37.383,91.544 L37.383,103.224 C41.4512414,104.339473 45.6360238,104.975127 49.852,105.118 L49.852,105.118 Z" id="Path_697" stroke="#686868" stroke-width="3"></path>
        </g>
    </g>
</svg>
